Newaita-dark/apps/64/stage.svg

<svg height="64" viewBox="0 0 64 64" width="64" xmlns="http://www.w3.org/2000/svg" xmlns:xlink="http://www.w3.org/1999/xlink"><linearGradient id="a" gradientUnits="userSpaceOnUse" x1="31.75304" x2="31.75304" y1="56.067872" y2="58.71396000006"><stop offset="0" stop-opacity=".27451"/><stop offset="1" stop-opacity="0"/></linearGradient><linearGradient id="b"><stop offset="0" stop-opacity=".313726"/><stop offset=".222222" stop-opacity=".27451"/><stop offset="1" stop-opacity="0"/></linearGradient><radialGradient id="c" cx="450.908936" cy="189.579361" gradientTransform="matrix(.00000035 -.156265 -.281277 -.0000002 106.24586 127.190665)" gradientUnits="userSpaceOnUse" r="21.166656" xlink:href="#b"/><radialGradient id="d" cx="450.908936" cy="189.579361" gradientTransform="matrix(-.00000035 .156265 .281277 .0000002 -42.409041 -15.054958)" gradientUnits="userSpaceOnUse" r="21.166656" xlink:href="#b"/><radialGradient id="e" cx="450.908936" cy="189.579361" gradientTransform="matrix(-.00000035 -.156265 .281277 -.0000002 -42.409041 127.190665)" gradientUnits="userSpaceOnUse" r="21.166656" xlink:href="#b"/><radialGradient id="f" cx="450.908936" cy="189.579361" gradientTransform="matrix(.00000035 .156265 -.281277 .0000002 106.245857 -15.054959)" gradientUnits="userSpaceOnUse" r="21.166656" xlink:href="#b"/><linearGradient id="g" gradientUnits="userSpaceOnUse" x1="31.753048" x2="31.753048" y1="5.95758900013" y2="56.233247"><stop offset="0" stop-color="#eee"/><stop offset="1" stop-color="#e0e0e0"/></linearGradient><linearGradient id="h" gradientUnits="userSpaceOnUse" x1="33.07609500013" x2="33.07609500013" y1="42.83743087515" y2="13.73047000013"><stop offset="0" stop-color="#ef5350"/><stop offset="1" stop-color="#e57373"/></linearGradient><linearGradient id="i" gradientUnits="userSpaceOnUse" x1="46.30651899987" x2="46.30652287524" y1="42.83743099987" y2="13.73047012485"><stop offset="0" stop-color="#66bb6a"/><stop offset="1" stop-color="#81c784"/></linearGradient><linearGradient id="j" gradientUnits="userSpaceOnUse" x1="15.87652999987" x2="15.87653387524" y1="42.83742199987" y2="13.73047062576"><stop offset="0" stop-color="#26a69a"/><stop offset="1" stop-color="#4db6ac"/></linearGradient><linearGradient id="k" gradientUnits="userSpaceOnUse" x1="26.46087399987" x2="26.46088175062" y1="42.83743099987" y2="13.73047300013"><stop offset="0" stop-color="#ffa726"/><stop offset="1" stop-color="#ffb74d"/></linearGradient><path d="m10.253906 56.066406h43.328125v2.648438h-43.328125zm0 0" fill="url(#a)"/><path d="m53.582031 56.066406h5.292969v-2.644531h-5.292969zm0 0" fill="url(#c)"/><path d="m10.253906 56.066406h-5.292968v2.648438h5.292968zm0 0" fill="url(#d)"/><path d="m10.253906 56.066406h-5.292968v-2.644531h5.292968zm0 0" fill="url(#e)"/><path d="m53.582031 56.066406h5.292969v2.648438h-5.292969zm0 0" fill="url(#f)"/><path d="m7.277344 5.957031h48.953125c1.09375 0 1.984375.890625 1.984375 1.984375v46.308594c0 1.09375-.890625 1.984375-1.984375 1.984375h-48.953125c-1.097656 0-1.984375-.890625-1.984375-1.984375v-46.308594c0-1.09375.886719-1.984375 1.984375-1.984375zm0 0" fill="url(#g)"/><path d="m7.277344 56.234375c-1.101563 0-1.984375-.886719-1.984375-1.984375v-.828125c0 1.097656.882812 1.984375 1.984375 1.984375h48.953125c1.097656 0 1.984375-.886719 1.984375-1.984375v.828125c0 1.097656-.886719 1.984375-1.984375 1.984375zm0 0" fill-opacity=".235294"/><path d="m7.277344 5.957031c-1.101563 0-1.984375.886719-1.984375 1.984375v.828125c0-1.101562.882812-1.984375 1.984375-1.984375h48.953125c1.097656 0 1.984375.882813 1.984375 1.984375v-.828125c0-1.097656-.886719-1.984375-1.984375-1.984375zm0 0" fill="#fff"/><path d="m7.277344 5.605469c-1.199219 0-2.171875.972656-2.171875 2.171875v46.304687c0 1.203125.972656 2.171875 2.171875 2.171875h48.953125c1.199219 0 2.171875-.96875 2.171875-2.171875v-46.304687c0-1.199219-.972656-2.171875-2.171875-2.171875zm0 .375h48.953125c.996093 0 1.796875.796875 1.796875 1.796875v46.304687c0 1-.800782 1.796875-1.796875 1.796875h-48.953125c-1 0-1.796875-.796875-1.796875-1.796875v-46.304687c0-1 .796875-1.796875 1.796875-1.796875zm0 0" fill="#212121"/><path d="m34.398438 34.898438h5.292968c.730469 0 1.324219.59375 1.324219 1.324218v5.292969c0 .730469-.59375 1.320313-1.324219 1.320313h-5.292968c-.730469 0-1.324219-.589844-1.324219-1.320313v-5.292969c0-.730468.59375-1.324218 1.324219-1.324218zm0 0" fill="url(#h)"/><path d="m44.984375 17.699219h5.292969c.730468 0 1.320312.59375 1.320312 1.324219v22.492187c0 .730469-.589844 1.320313-1.320312 1.320313h-5.292969c-.730469 0-1.324219-.589844-1.324219-1.320313v-22.492187c0-.730469.59375-1.324219 1.324219-1.324219zm0 0" fill="url(#i)"/><path d="m13.230469 13.730469h5.292969c.730468 0 1.320312.59375 1.320312 1.324219v26.460937c0 .730469-.589844 1.320313-1.320312 1.320313h-5.292969c-.730469 0-1.324219-.589844-1.324219-1.320313v-26.460937c0-.730469.59375-1.324219 1.324219-1.324219zm0 0" fill="url(#j)"/><path d="m23.816406 26.960938h5.289063c.730469 0 1.324219.59375 1.324219 1.324218v13.230469c0 .730469-.59375 1.320313-1.324219 1.320313h-5.289063c-.730468 0-1.324218-.589844-1.324218-1.320313v-13.230469c0-.730468.59375-1.324218 1.324218-1.324218zm0 0" fill="url(#k)"/><path d="m13.230469 13.730469c-.734375 0-1.324219.589843-1.324219 1.324219v.660156c0-.734375.589844-1.324219 1.324219-1.324219h5.292969c.730468 0 1.320312.589844 1.320312 1.324219v-.660156c0-.734376-.589844-1.324219-1.320312-1.324219zm31.753906 3.96875c-.734375 0-1.324219.589843-1.324219 1.324219v.660156c0-.730469.589844-1.324219 1.324219-1.324219h5.292969c.730468 0 1.320312.59375 1.320312 1.324219v-.660156c0-.734376-.589844-1.324219-1.320312-1.324219zm-21.167969 9.261719c-.734375 0-1.324218.589843-1.324218 1.324218v.660156c0-.734374.589843-1.324218 1.324218-1.324218h5.289063c.734375 0 1.324219.589844 1.324219 1.324218v-.660156c0-.734375-.589844-1.324218-1.324219-1.324218zm10.582032 7.9375c-.730469 0-1.324219.589843-1.324219 1.324218v.660156c0-.730468.59375-1.320312 1.324219-1.320312h5.292968c.734375 0 1.324219.589844 1.324219 1.320312v-.660156c0-.734375-.589844-1.324218-1.324219-1.324218zm0 0" fill="#fff" fill-opacity=".392157"/><path d="m11.90625 41.515625v1.320313c0 .734374.589844 1.324218 1.324219 1.324218h5.292969c.730468 0 1.320312-.589844 1.320312-1.324218v-1.320313c0 .730469-.589844 1.320313-1.320312 1.320313h-5.292969c-.734375 0-1.324219-.589844-1.324219-1.320313zm10.585938 0v1.320313c0 .734374.589843 1.324218 1.324218 1.324218h5.289063c.734375 0 1.324219-.589844 1.324219-1.324218v-1.320313c0 .730469-.589844 1.320313-1.324219 1.320313h-5.289063c-.734375 0-1.324218-.589844-1.324218-1.320313zm10.582031 0v1.320313c0 .734374.59375 1.324218 1.324219 1.324218h5.292968c.734375 0 1.324219-.589844 1.324219-1.324218v-1.320313c0 .730469-.589844 1.320313-1.324219 1.320313h-5.292968c-.730469 0-1.324219-.589844-1.324219-1.320313zm10.585937 0v1.320313c0 .734374.589844 1.324218 1.324219 1.324218h5.292969c.730468 0 1.320312-.589844 1.320312-1.324218v-1.320313c0 .730469-.589844 1.320313-1.320312 1.320313h-5.292969c-.734375 0-1.324219-.589844-1.324219-1.320313zm0 0" fill-opacity=".235294"/><g fill="none" stroke="#212121" stroke-linejoin="round" stroke-width="3" transform="matrix(.125012 0 0 .125012 0 26.877566)"><path d="m275.161223 64.160841h42.339707c5.843192 0 10.592739 4.749547 10.592739 10.592739v42.339707c0 5.843192-4.749547 10.561491-10.592739 10.561491h-42.339707c-5.843192 0-10.592738-4.718299-10.592738-10.561491v-42.339707c0-5.843192 4.749546-10.592739 10.592738-10.592739zm0 0"/><path d="m359.840637-73.41977h42.339707c5.843192 0 10.561491 4.749546 10.561491 10.592738v179.920319c0 5.843192-4.718299 10.561491-10.561491 10.561491h-42.339707c-5.843192 0-10.592739-4.718299-10.592739-10.561491v-179.920319c0-5.843192 4.749547-10.592738 10.592739-10.592738zm0 0"/><path d="m105.833643-105.166739h42.339707c5.843192 0 10.561492 4.749547 10.561492 10.592739v211.667287c0 5.843192-4.7183 10.561491-10.561492 10.561491h-42.339707c-5.843192 0-10.592738-4.718299-10.592738-10.561491v-211.667287c0-5.843192 4.749546-10.592739 10.592738-10.592739zm0 0"/><path d="m190.513057.666905h42.30846c5.843192 0 10.592738 4.749546 10.592738 10.592738v105.833644c0 5.843192-4.749546 10.561491-10.592738 10.561491h-42.30846c-5.843192 0-10.592739-4.718299-10.592739-10.561491v-105.833644c0-5.843192 4.749547-10.592738 10.592739-10.592738zm0 0"/></g></svg>

<?xml version="1.0" encoding="UTF-8"?>
<svg xmlns="http://www.w3.org/2000/svg" xmlns:xlink="http://www.w3.org/1999/xlink" width="64px" height="64px" viewBox="0 0 64 64" version="1.1">
<defs>
<linearGradient id="linear0" gradientUnits="userSpaceOnUse" x1="254" y1="233.5" x2="254" y2="254.666672" gradientTransform="matrix(0.125012,0,0,0.125012,-0.00000763012,26.87757)">
<stop offset="0" style="stop-color:rgb(0%,0%,0%);stop-opacity:0.27451;"/>
<stop offset="1" style="stop-color:rgb(0%,0%,0%);stop-opacity:0;"/>
</linearGradient>
<radialGradient id="radial0" gradientUnits="userSpaceOnUse" cx="450.908936" cy="189.579361" fx="450.908936" fy="189.579361" r="21.166656" gradientTransform="matrix(0.000000348341,-0.156265,-0.281277,-0.000000203077,106.24586,127.190665)">
<stop offset="0" style="stop-color:rgb(0%,0%,0%);stop-opacity:0.313726;"/>
<stop offset="0.222222" style="stop-color:rgb(0%,0%,0%);stop-opacity:0.27451;"/>
<stop offset="1" style="stop-color:rgb(0%,0%,0%);stop-opacity:0;"/>
</radialGradient>
<radialGradient id="radial1" gradientUnits="userSpaceOnUse" cx="450.908936" cy="189.579361" fx="450.908936" fy="189.579361" r="21.166656" gradientTransform="matrix(-0.000000348341,0.156265,0.281277,0.000000203077,-42.409041,-15.054958)">
<stop offset="0" style="stop-color:rgb(0%,0%,0%);stop-opacity:0.313726;"/>
<stop offset="0.222222" style="stop-color:rgb(0%,0%,0%);stop-opacity:0.27451;"/>
<stop offset="1" style="stop-color:rgb(0%,0%,0%);stop-opacity:0;"/>
</radialGradient>
<radialGradient id="radial2" gradientUnits="userSpaceOnUse" cx="450.908936" cy="189.579361" fx="450.908936" fy="189.579361" r="21.166656" gradientTransform="matrix(-0.000000348341,-0.156265,0.281277,-0.000000203077,-42.409041,127.190665)">
<stop offset="0" style="stop-color:rgb(0%,0%,0%);stop-opacity:0.313726;"/>
<stop offset="0.222222" style="stop-color:rgb(0%,0%,0%);stop-opacity:0.27451;"/>
<stop offset="1" style="stop-color:rgb(0%,0%,0%);stop-opacity:0;"/>
</radialGradient>
<radialGradient id="radial3" gradientUnits="userSpaceOnUse" cx="450.908936" cy="189.579361" fx="450.908936" fy="189.579361" r="21.166656" gradientTransform="matrix(0.000000348341,0.156265,-0.281277,0.000000203077,106.245857,-15.054959)">
<stop offset="0" style="stop-color:rgb(0%,0%,0%);stop-opacity:0.313726;"/>
<stop offset="0.222222" style="stop-color:rgb(0%,0%,0%);stop-opacity:0.27451;"/>
<stop offset="1" style="stop-color:rgb(0%,0%,0%);stop-opacity:0;"/>
</radialGradient>
<linearGradient id="linear1" gradientUnits="userSpaceOnUse" x1="254" y1="-168.666656" x2="254" y2="233.5" gradientTransform="matrix(0.125012,0,0,0.125012,0,27.042945)">
<stop offset="0" style="stop-color:rgb(93.333334%,93.333334%,93.333334%);stop-opacity:1;"/>
<stop offset="1" style="stop-color:rgb(87.843138%,87.843138%,87.843138%);stop-opacity:1;"/>
</linearGradient>
<linearGradient id="linear2" gradientUnits="userSpaceOnUse" x1="296.333344" y1="127.666679" x2="296.333344" y2="-105.166656" gradientTransform="matrix(0.125012,0,0,0.125012,-3.969129,26.877564)">
<stop offset="0" style="stop-color:rgb(93.725491%,32.549021%,31.37255%);stop-opacity:1;"/>
<stop offset="1" style="stop-color:rgb(89.803922%,45.09804%,45.09804%);stop-opacity:1;"/>
</linearGradient>
<linearGradient id="linear3" gradientUnits="userSpaceOnUse" x1="306.916656" y1="127.666656" x2="306.916687" y2="-105.166679" gradientTransform="matrix(0.125012,0,0,0.125012,7.938254,26.877567)">
<stop offset="0" style="stop-color:rgb(40.000001%,73.333335%,41.568628%);stop-opacity:1;"/>
<stop offset="1" style="stop-color:rgb(50.588238%,78.039217%,51.764709%);stop-opacity:1;"/>
</linearGradient>
<linearGradient id="linear4" gradientUnits="userSpaceOnUse" x1="306.916656" y1="127.666656" x2="306.916687" y2="-105.166603" gradientTransform="matrix(0.125012,0,0,0.125012,-22.491735,26.877558)">
<stop offset="0" style="stop-color:rgb(14.901961%,65.098041%,60.392159%);stop-opacity:1;"/>
<stop offset="1" style="stop-color:rgb(30.19608%,71.372551%,67.450982%);stop-opacity:1;"/>
</linearGradient>
<linearGradient id="linear5" gradientUnits="userSpaceOnUse" x1="306.916656" y1="127.666656" x2="306.916718" y2="-105.166656" gradientTransform="matrix(0.125012,0,0,0.125012,-11.907391,26.877567)">
<stop offset="0" style="stop-color:rgb(100%,65.490198%,14.901961%);stop-opacity:1;"/>
<stop offset="1" style="stop-color:rgb(100%,71.764708%,30.19608%);stop-opacity:1;"/>
</linearGradient>
</defs>
<g id="surface1">
<path style=" stroke:none;fill-rule:nonzero;fill:url(#linear0);" d="M 10.253906 56.066406 L 53.582031 56.066406 L 53.582031 58.714844 L 10.253906 58.714844 Z M 10.253906 56.066406 "/>
<path style=" stroke:none;fill-rule:nonzero;fill:url(#radial0);" d="M 53.582031 56.066406 L 58.875 56.066406 L 58.875 53.421875 L 53.582031 53.421875 Z M 53.582031 56.066406 "/>
<path style=" stroke:none;fill-rule:nonzero;fill:url(#radial1);" d="M 10.253906 56.066406 L 4.960938 56.066406 L 4.960938 58.714844 L 10.253906 58.714844 Z M 10.253906 56.066406 "/>
<path style=" stroke:none;fill-rule:nonzero;fill:url(#radial2);" d="M 10.253906 56.066406 L 4.960938 56.066406 L 4.960938 53.421875 L 10.253906 53.421875 Z M 10.253906 56.066406 "/>
<path style=" stroke:none;fill-rule:nonzero;fill:url(#radial3);" d="M 53.582031 56.066406 L 58.875 56.066406 L 58.875 58.714844 L 53.582031 58.714844 Z M 53.582031 56.066406 "/>
<path style=" stroke:none;fill-rule:nonzero;fill:url(#linear1);" d="M 7.277344 5.957031 L 56.230469 5.957031 C 57.324219 5.957031 58.214844 6.847656 58.214844 7.941406 L 58.214844 54.25 C 58.214844 55.34375 57.324219 56.234375 56.230469 56.234375 L 7.277344 56.234375 C 6.179688 56.234375 5.292969 55.34375 5.292969 54.25 L 5.292969 7.941406 C 5.292969 6.847656 6.179688 5.957031 7.277344 5.957031 Z M 7.277344 5.957031 "/>
<path style=" stroke:none;fill-rule:nonzero;fill:rgb(0%,0%,0%);fill-opacity:0.235294;" d="M 7.277344 56.234375 C 6.175781 56.234375 5.292969 55.347656 5.292969 54.25 L 5.292969 53.421875 C 5.292969 54.519531 6.175781 55.40625 7.277344 55.40625 L 56.230469 55.40625 C 57.328125 55.40625 58.214844 54.519531 58.214844 53.421875 L 58.214844 54.25 C 58.214844 55.347656 57.328125 56.234375 56.230469 56.234375 Z M 7.277344 56.234375 "/>
<path style=" stroke:none;fill-rule:nonzero;fill:rgb(100%,100%,100%);fill-opacity:1;" d="M 7.277344 5.957031 C 6.175781 5.957031 5.292969 6.84375 5.292969 7.941406 L 5.292969 8.769531 C 5.292969 7.667969 6.175781 6.785156 7.277344 6.785156 L 56.230469 6.785156 C 57.328125 6.785156 58.214844 7.667969 58.214844 8.769531 L 58.214844 7.941406 C 58.214844 6.84375 57.328125 5.957031 56.230469 5.957031 Z M 7.277344 5.957031 "/>
<path style=" stroke:none;fill-rule:nonzero;fill:rgb(12.941177%,12.941177%,12.941177%);fill-opacity:1;" d="M 7.277344 5.605469 C 6.078125 5.605469 5.105469 6.578125 5.105469 7.777344 L 5.105469 54.082031 C 5.105469 55.285156 6.078125 56.253906 7.277344 56.253906 L 56.230469 56.253906 C 57.429688 56.253906 58.402344 55.285156 58.402344 54.082031 L 58.402344 7.777344 C 58.402344 6.578125 57.429688 5.605469 56.230469 5.605469 Z M 7.277344 5.980469 L 56.230469 5.980469 C 57.226562 5.980469 58.027344 6.777344 58.027344 7.777344 L 58.027344 54.082031 C 58.027344 55.082031 57.226562 55.878906 56.230469 55.878906 L 7.277344 55.878906 C 6.277344 55.878906 5.480469 55.082031 5.480469 54.082031 L 5.480469 7.777344 C 5.480469 6.777344 6.277344 5.980469 7.277344 5.980469 Z M 7.277344 5.980469 "/>
<path style=" stroke:none;fill-rule:nonzero;fill:url(#linear2);" d="M 34.398438 34.898438 L 39.691406 34.898438 C 40.421875 34.898438 41.015625 35.492188 41.015625 36.222656 L 41.015625 41.515625 C 41.015625 42.246094 40.421875 42.835938 39.691406 42.835938 L 34.398438 42.835938 C 33.667969 42.835938 33.074219 42.246094 33.074219 41.515625 L 33.074219 36.222656 C 33.074219 35.492188 33.667969 34.898438 34.398438 34.898438 Z M 34.398438 34.898438 "/>
<path style=" stroke:none;fill-rule:nonzero;fill:url(#linear3);" d="M 44.984375 17.699219 L 50.277344 17.699219 C 51.007812 17.699219 51.597656 18.292969 51.597656 19.023438 L 51.597656 41.515625 C 51.597656 42.246094 51.007812 42.835938 50.277344 42.835938 L 44.984375 42.835938 C 44.253906 42.835938 43.660156 42.246094 43.660156 41.515625 L 43.660156 19.023438 C 43.660156 18.292969 44.253906 17.699219 44.984375 17.699219 Z M 44.984375 17.699219 "/>
<path style=" stroke:none;fill-rule:nonzero;fill:url(#linear4);" d="M 13.230469 13.730469 L 18.523438 13.730469 C 19.253906 13.730469 19.84375 14.324219 19.84375 15.054688 L 19.84375 41.515625 C 19.84375 42.246094 19.253906 42.835938 18.523438 42.835938 L 13.230469 42.835938 C 12.5 42.835938 11.90625 42.246094 11.90625 41.515625 L 11.90625 15.054688 C 11.90625 14.324219 12.5 13.730469 13.230469 13.730469 Z M 13.230469 13.730469 "/>
<path style=" stroke:none;fill-rule:nonzero;fill:url(#linear5);" d="M 23.816406 26.960938 L 29.105469 26.960938 C 29.835938 26.960938 30.429688 27.554688 30.429688 28.285156 L 30.429688 41.515625 C 30.429688 42.246094 29.835938 42.835938 29.105469 42.835938 L 23.816406 42.835938 C 23.085938 42.835938 22.492188 42.246094 22.492188 41.515625 L 22.492188 28.285156 C 22.492188 27.554688 23.085938 26.960938 23.816406 26.960938 Z M 23.816406 26.960938 "/>
<path style=" stroke:none;fill-rule:nonzero;fill:rgb(100%,100%,100%);fill-opacity:0.392157;" d="M 13.230469 13.730469 C 12.496094 13.730469 11.90625 14.320312 11.90625 15.054688 L 11.90625 15.714844 C 11.90625 14.980469 12.496094 14.390625 13.230469 14.390625 L 18.523438 14.390625 C 19.253906 14.390625 19.84375 14.980469 19.84375 15.714844 L 19.84375 15.054688 C 19.84375 14.320312 19.253906 13.730469 18.523438 13.730469 Z M 44.984375 17.699219 C 44.25 17.699219 43.660156 18.289062 43.660156 19.023438 L 43.660156 19.683594 C 43.660156 18.953125 44.25 18.359375 44.984375 18.359375 L 50.277344 18.359375 C 51.007812 18.359375 51.597656 18.953125 51.597656 19.683594 L 51.597656 19.023438 C 51.597656 18.289062 51.007812 17.699219 50.277344 17.699219 Z M 23.816406 26.960938 C 23.082031 26.960938 22.492188 27.550781 22.492188 28.285156 L 22.492188 28.945312 C 22.492188 28.210938 23.082031 27.621094 23.816406 27.621094 L 29.105469 27.621094 C 29.839844 27.621094 30.429688 28.210938 30.429688 28.945312 L 30.429688 28.285156 C 30.429688 27.550781 29.839844 26.960938 29.105469 26.960938 Z M 34.398438 34.898438 C 33.667969 34.898438 33.074219 35.488281 33.074219 36.222656 L 33.074219 36.882812 C 33.074219 36.152344 33.667969 35.5625 34.398438 35.5625 L 39.691406 35.5625 C 40.425781 35.5625 41.015625 36.152344 41.015625 36.882812 L 41.015625 36.222656 C 41.015625 35.488281 40.425781 34.898438 39.691406 34.898438 Z M 34.398438 34.898438 "/>
<path style=" stroke:none;fill-rule:nonzero;fill:rgb(0%,0%,0%);fill-opacity:0.235294;" d="M 11.90625 41.515625 L 11.90625 42.835938 C 11.90625 43.570312 12.496094 44.160156 13.230469 44.160156 L 18.523438 44.160156 C 19.253906 44.160156 19.84375 43.570312 19.84375 42.835938 L 19.84375 41.515625 C 19.84375 42.246094 19.253906 42.835938 18.523438 42.835938 L 13.230469 42.835938 C 12.496094 42.835938 11.90625 42.246094 11.90625 41.515625 Z M 22.492188 41.515625 L 22.492188 42.835938 C 22.492188 43.570312 23.082031 44.160156 23.816406 44.160156 L 29.105469 44.160156 C 29.839844 44.160156 30.429688 43.570312 30.429688 42.835938 L 30.429688 41.515625 C 30.429688 42.246094 29.839844 42.835938 29.105469 42.835938 L 23.816406 42.835938 C 23.082031 42.835938 22.492188 42.246094 22.492188 41.515625 Z M 33.074219 41.515625 L 33.074219 42.835938 C 33.074219 43.570312 33.667969 44.160156 34.398438 44.160156 L 39.691406 44.160156 C 40.425781 44.160156 41.015625 43.570312 41.015625 42.835938 L 41.015625 41.515625 C 41.015625 42.246094 40.425781 42.835938 39.691406 42.835938 L 34.398438 42.835938 C 33.667969 42.835938 33.074219 42.246094 33.074219 41.515625 Z M 43.660156 41.515625 L 43.660156 42.835938 C 43.660156 43.570312 44.25 44.160156 44.984375 44.160156 L 50.277344 44.160156 C 51.007812 44.160156 51.597656 43.570312 51.597656 42.835938 L 51.597656 41.515625 C 51.597656 42.246094 51.007812 42.835938 50.277344 42.835938 L 44.984375 42.835938 C 44.25 42.835938 43.660156 42.246094 43.660156 41.515625 Z M 43.660156 41.515625 "/>
<path style="fill:none;stroke-width:3;stroke-linecap:butt;stroke-linejoin:round;stroke:rgb(12.941177%,12.941177%,12.941177%);stroke-opacity:1;stroke-miterlimit:4;" d="M 275.161223 64.160841 L 317.50093 64.160841 C 323.344122 64.160841 328.093669 68.910388 328.093669 74.75358 L 328.093669 117.093287 C 328.093669 122.936479 323.344122 127.654778 317.50093 127.654778 L 275.161223 127.654778 C 269.318031 127.654778 264.568485 122.936479 264.568485 117.093287 L 264.568485 74.75358 C 264.568485 68.910388 269.318031 64.160841 275.161223 64.160841 Z M 275.161223 64.160841 " transform="matrix(0.125012,0,0,0.125012,0,26.877566)"/>
<path style="fill:none;stroke-width:3;stroke-linecap:butt;stroke-linejoin:round;stroke:rgb(12.941177%,12.941177%,12.941177%);stroke-opacity:1;stroke-miterlimit:4;" d="M 359.840637 -73.41977 L 402.180344 -73.41977 C 408.023536 -73.41977 412.741835 -68.670224 412.741835 -62.827032 L 412.741835 117.093287 C 412.741835 122.936479 408.023536 127.654778 402.180344 127.654778 L 359.840637 127.654778 C 353.997445 127.654778 349.247898 122.936479 349.247898 117.093287 L 349.247898 -62.827032 C 349.247898 -68.670224 353.997445 -73.41977 359.840637 -73.41977 Z M 359.840637 -73.41977 " transform="matrix(0.125012,0,0,0.125012,0,26.877566)"/>
<path style="fill:none;stroke-width:3;stroke-linecap:butt;stroke-linejoin:round;stroke:rgb(12.941177%,12.941177%,12.941177%);stroke-opacity:1;stroke-miterlimit:4;" d="M 105.833643 -105.166739 L 148.17335 -105.166739 C 154.016542 -105.166739 158.734842 -100.417192 158.734842 -94.574 L 158.734842 117.093287 C 158.734842 122.936479 154.016542 127.654778 148.17335 127.654778 L 105.833643 127.654778 C 99.990451 127.654778 95.240905 122.936479 95.240905 117.093287 L 95.240905 -94.574 C 95.240905 -100.417192 99.990451 -105.166739 105.833643 -105.166739 Z M 105.833643 -105.166739 " transform="matrix(0.125012,0,0,0.125012,0,26.877566)"/>
<path style="fill:none;stroke-width:3;stroke-linecap:butt;stroke-linejoin:round;stroke:rgb(12.941177%,12.941177%,12.941177%);stroke-opacity:1;stroke-miterlimit:4;" d="M 190.513057 0.666905 L 232.821517 0.666905 C 238.664709 0.666905 243.414255 5.416451 243.414255 11.259643 L 243.414255 117.093287 C 243.414255 122.936479 238.664709 127.654778 232.821517 127.654778 L 190.513057 127.654778 C 184.669865 127.654778 179.920318 122.936479 179.920318 117.093287 L 179.920318 11.259643 C 179.920318 5.416451 184.669865 0.666905 190.513057 0.666905 Z M 190.513057 0.666905 " transform="matrix(0.125012,0,0,0.125012,0,26.877566)"/>
</g>
</svg>
